X: 36809
T: Shetland Pony
R: reel
M: 4/4
K: Gmajor
GE|:D2B,D G2GF|E2EG A2GE|DEGA BABd|e2A2 A2GE|
DB,DE G2GF|E2EG A2BA|GBde gedB|1 A2G4 zE:|2 A2G4 zf||
g2ge d2Bc|dBAG E2GE|DEGA BABd|e2A2 A3f|
g2ge d2Bc|dBAG EDBA|GBde gedB|A2G4 zf|
gedg edBe|dBAd BAGE|DEGA BABd|e2A2 A2GE|
D2DE G2GF|EDEG A2BA|GBde gedB|A2G4||

